X:1
T:Gavotte
T:Gavotte
T:HWV 491
T:Georg Friedrich H\"andel
C:Georg Friedrich H\"andel
%%score 1 2
L:1/8
M:4/4
K:G
V:1 treble 
V:2 bass 
V:1
 GA | B2 AG d2 ef | [Bg]6 gf | feed dccB | [FA]6 GA | B2 AG d2 ef | [Bg]6 ag | f2 ed f2 ed | %8
 [FAd]6 :: fg | a2 gf gfga | b6 b^d | e^def g2 fe | [GBe]6 gf | feed dccB | c6 ed | dccB BAAG | %17
 F6 GD | E2 AE F2 BF | G2 cG A2 dA | B2 AG B2 AG | [B,DG]6 :| %22
V:2
 z2 | G,2 G,,2 G,2 F,2 | E,2 E,,2 E,2 B,,2 | C,2 B,,2 A,,2 G,,2 | D,2 A,,2 D,,2 z2 | %5
 G,2 G,,2 G,2 F,2 | E,2 E,,2 E,2 ^C,2 | D,2 G,2 A,2 A,,2 | D,2 A,,2 D,,2 :: D,2 | F,2 D,2 E,2 F,2 | %11
 G,2 G,,2 G,2 B,2 | C2 A,2 B,2 B,,2 | E,2 E,,2 E,2 B,,2 | C,2 B,,2 A,,2 G,,2 | A,,2 E,2 A,2 G,2 | %16
 A,2 G,2 D,2 ^C,2 | D,2 D,,2 D,2 B,,2 | C,2 C,,2 D,2 D,,2 | E,2 E,,2 F,2 F,,2 | G,2 C,2 D,2 D,,2 | %21
 G,2 D,2 G,,2 :| %22

